frontend/src/assets/logo.svg

<svg width="250" height="106" viewBox="0 0 250 106" fill="none" xmlns="http://www.w3.org/2000/svg">
<path d="M93.93 94.2987H76.8668L87.1185 59.4013H78.4493L64.2071 106H47.1439L75.3532 11.6325H92.4163L82.7839 44.7403H91.4531L105.145 0H122.208L93.93 94.2987Z" fill="#E02041"/>
<path d="M123.584 11.6325H156.128L151.243 26.5H136.45L131.084 44.6714H145.945L141.267 59.3325H126.749L121.038 78.5364H136.863L131.152 94.2299H99.2278L123.584 11.6325Z" fill="#E02041"/>
<path d="M151.312 106H134.111L161.563 11.6325H192.8C196.515 11.6325 198.992 12.6649 200.299 14.7987C201.607 16.9325 201.813 19.3416 200.988 22.0948L192.731 50.1779C192.318 51.4169 191.561 52.5182 190.392 53.5507C189.222 54.5831 187.571 55.0649 185.438 55.0649C186.745 55.2714 187.846 56.0974 188.741 57.5429C189.635 58.9883 189.635 61.1909 188.741 64.1507L179.865 94.2987H162.733L172.228 61.8792C172.434 61.1909 172.503 60.5714 172.297 59.952C172.09 59.3325 171.471 59.0571 170.439 59.0571H164.728L151.312 106ZM174.154 46.874C174.98 46.874 175.737 46.6675 176.494 46.2546C177.182 45.8416 177.732 45.0156 178.145 43.7078L182.686 28.3584C183.374 26.087 182.479 24.9169 180.071 24.9169H174.705L168.237 46.874H174.154Z" fill="#E02041"/>
<path d="M242.957 11.6325C245.641 11.6325 247.567 12.5961 248.806 14.5234C250.044 16.4507 250.319 18.6533 249.631 21.0623L230.642 85.5572C229.61 88.9987 227.821 91.2701 225.344 92.5091C222.867 93.7481 220.184 94.2987 217.363 94.2987H196.997C195.552 94.2987 194.245 94.0234 193.006 93.5416C191.768 93.0598 190.805 92.3026 189.979 91.339C189.153 90.3753 188.672 89.1364 188.397 87.7598C188.121 86.3831 188.259 84.8 188.809 83.0104L207.455 19.6857C208.074 17.2766 209.313 15.2805 211.17 13.8351C213.028 12.3896 215.367 11.6325 218.188 11.6325H242.957ZM225.069 24.9169C224.243 24.9169 223.624 25.1234 223.28 25.4675C222.867 25.8805 222.661 26.3623 222.454 26.913L207.249 78.3987C206.836 79.7753 207.386 80.4637 208.831 80.4637H213.235C214.679 80.4637 215.574 79.7753 215.987 78.3987L231.123 26.9818C231.467 25.5364 230.917 24.8481 229.403 24.8481H225.069V24.9169Z" fill="#E02041"/>
<path d="M31.443 20.6494H42.5203C43.9652 20.6494 44.8596 21.0624 45.2724 21.8195C45.6853 22.5766 45.7541 23.4714 45.4788 24.5727L42.8643 33.5208C42.7267 34.0714 42.3827 34.5533 41.8323 34.9663C41.2819 35.4481 40.4562 35.5857 39.4242 35.5857C39.9746 35.5857 40.3874 35.7234 40.6626 35.9299C41.0067 36.1364 41.2131 36.4117 41.3507 36.7559C41.4883 37.1 41.5571 37.4442 41.5571 37.8572C41.5571 38.2701 41.4883 38.6831 41.4195 39.0273L38.9426 47.2182C38.6673 48.1818 38.1169 48.939 37.4289 49.4896C36.7409 50.0403 35.64 50.3156 34.3328 50.3156H22.705L31.443 20.6494ZM32.5439 45.4286C32.8191 45.4286 33.0943 45.3598 33.3007 45.2909C33.5071 45.1533 33.7135 44.8779 33.8511 44.465L35.64 38.4766C35.7776 38.0637 35.7776 37.7883 35.64 37.513C35.5024 37.2377 35.2272 37.1688 34.8144 37.1688H32.8879L30.411 45.4974H32.5439V45.4286ZM35.9152 33.1766C36.328 33.1766 36.6721 33.1078 36.8785 32.9701C37.0849 32.8325 37.2913 32.5572 37.4289 32.0753L39.0114 26.7065C39.149 26.2935 39.149 26.0182 39.0802 25.8117C38.9426 25.6052 38.6673 25.4675 38.2545 25.4675H36.2592L33.9887 33.1766H35.9152Z" fill="#fff"/>
<path d="M48.7812 20.6494H60.4777L58.8952 26.0182H53.391L51.4645 32.5572H56.8311L55.2487 37.8572H49.882L47.8179 44.7403H53.5286L51.4645 50.3844H40.0432L48.7812 20.6494Z" fill="#fff"/>
<path d="M18.9897 55.5468L17.4072 60.9156H13.2102L6.12347 85.213H0L7.22432 60.8468H2.95853L4.541 55.4779H18.9897V55.5468Z" fill="#fff"/>
<path d="M27.3149 85.213H21.1915L24.838 72.6858H21.7419L18.0265 85.213H11.903L20.641 55.5468H26.7645L23.3244 67.4546H26.4205L29.9295 55.5468H36.0529L27.3149 85.213Z" fill="#fff"/>
<path d="M37.9794 55.5468H49.6759L48.0934 60.9156H42.5892L40.6627 67.4546H46.0293L44.4469 72.7546H39.0802L37.0161 79.6377H42.7268L40.6627 85.2819H29.2414L37.9794 55.5468Z" fill="#fff"/>
</svg>

<?xml version="1.0" encoding="utf-8"?>
<!-- Generator: Adobe Illustrator 22.1.0, SVG Export Plug-In . SVG Version: 6.00 Build 0)  -->
<svg version="1.1" id="Layer_1" xmlns="http://www.w3.org/2000/svg" xmlns:xlink="http://www.w3.org/1999/xlink" x="0px" y="0px"
	 viewBox="0 0 250 106" style="enable-background:new 0 0 250 106;" xml:space="preserve">
<style type="text/css">
	.st0{fill:#E02041;}
	.st1{fill:#444;}
</style>
<path class="st0" d="M93.9,94.3H76.9l10.3-34.9h-8.7L64.2,106H47.1l28.2-94.4h17.1l-9.6,33.1h8.7L105.1,0h17.1L93.9,94.3z"/>
<path class="st0" d="M123.6,11.6h32.5l-4.9,14.9h-14.8l-5.4,18.2h14.9l-4.7,14.7h-14.5L121,78.5h15.8l-5.7,15.7H99.2L123.6,11.6z"/>
<path class="st0" d="M151.3,106h-17.2l27.5-94.4h31.2c3.7,0,6.2,1,7.5,3.2c1.3,2.1,1.5,4.5,0.7,7.3l-8.3,28.1
	c-0.4,1.2-1.2,2.3-2.3,3.4c-1.2,1-2.8,1.5-5,1.5c1.3,0.2,2.4,1,3.3,2.5c0.9,1.4,0.9,3.6,0,6.6l-8.9,30.1h-17.1l9.5-32.4
	c0.2-0.7,0.3-1.3,0.1-1.9c-0.2-0.6-0.8-0.9-1.9-0.9h-5.7L151.3,106z M174.2,46.9c0.8,0,1.6-0.2,2.3-0.6c0.7-0.4,1.2-1.2,1.7-2.5
	l4.5-15.3c0.7-2.3-0.2-3.4-2.6-3.4h-5.4l-6.5,22H174.2z"/>
<path class="st0" d="M243,11.6c2.7,0,4.6,1,5.8,2.9c1.2,1.9,1.5,4.1,0.8,6.5l-19,64.5c-1,3.4-2.8,5.7-5.3,7c-2.5,1.2-5.2,1.8-8,1.8
	H197c-1.4,0-2.8-0.3-4-0.8c-1.2-0.5-2.2-1.2-3-2.2c-0.8-1-1.3-2.2-1.6-3.6c-0.3-1.4-0.1-3,0.4-4.7l18.6-63.3
	c0.6-2.4,1.9-4.4,3.7-5.9c1.9-1.4,4.2-2.2,7-2.2H243z M225.1,24.9c-0.8,0-1.4,0.2-1.8,0.6c-0.4,0.4-0.6,0.9-0.8,1.4l-15.2,51.5
	c-0.4,1.4,0.1,2.1,1.6,2.1h4.4c1.4,0,2.3-0.7,2.8-2.1L231.1,27c0.3-1.4-0.2-2.1-1.7-2.1L225.1,24.9L225.1,24.9z"/>
<path class="st1" d="M31.4,20.6h11.1c1.4,0,2.3,0.4,2.8,1.2c0.4,0.8,0.5,1.7,0.2,2.8l-2.6,8.9c-0.1,0.6-0.5,1-1,1.4
	c-0.6,0.5-1.4,0.6-2.4,0.6c0.6,0,1,0.1,1.2,0.3c0.3,0.2,0.6,0.5,0.7,0.8c0.1,0.3,0.2,0.7,0.2,1.1c0,0.4-0.1,0.8-0.1,1.2l-2.5,8.2
	c-0.3,1-0.8,1.7-1.5,2.3c-0.7,0.6-1.8,0.8-3.1,0.8H22.7L31.4,20.6z M32.5,45.4c0.3,0,0.6-0.1,0.8-0.1c0.2-0.1,0.4-0.4,0.6-0.8l1.8-6
	c0.1-0.4,0.1-0.7,0-1s-0.4-0.3-0.8-0.3h-1.9l-2.5,8.3L32.5,45.4L32.5,45.4z M35.9,33.2c0.4,0,0.8-0.1,1-0.2c0.2-0.1,0.4-0.4,0.6-0.9
	l1.6-5.4c0.1-0.4,0.1-0.7,0.1-0.9c-0.1-0.2-0.4-0.3-0.8-0.3h-2L34,33.2H35.9z"/>
<path class="st1" d="M48.8,20.6h11.7L58.9,26h-5.5l-1.9,6.5h5.4l-1.6,5.3h-5.4l-2.1,6.9h5.7l-2.1,5.6H40L48.8,20.6z"/>
<path class="st1" d="M19,55.5l-1.6,5.4h-4.2L6.1,85.2H0l7.2-24.4H3l1.6-5.4L19,55.5L19,55.5z"/>
<path class="st1" d="M27.3,85.2h-6.1l3.6-12.5h-3.1L18,85.2h-6.1l8.7-29.7h6.1l-3.4,11.9h3.1l3.5-11.9h6.1L27.3,85.2z"/>
<path class="st1" d="M38,55.5h11.7l-1.6,5.4h-5.5l-1.9,6.5H46l-1.6,5.3h-5.4L37,79.6h5.7l-2.1,5.6H29.2L38,55.5z"/>
</svg>
